src/asset/img/member/female/female.svg

<?xml version="1.0" encoding="UTF-8" standalone="no"?>
<!-- Created with Inkscape (http://www.inkscape.org/) -->

<svg
   version="1.1"
   id="svg4737"
   width="3.6155636"
   height="4.9084287"
   viewBox="0 0 3.6155636 4.9084286"
   sodipodi:docname="female.svg"
   inkscape:version="1.1.1 (3bf5ae0d25, 2021-09-20, custom)"
   xmlns:inkscape="http://www.inkscape.org/namespaces/inkscape"
   xmlns:sodipodi="http://sodipodi.sourceforge.net/DTD/sodipodi-0.dtd"
   xmlns="http://www.w3.org/2000/svg"
   xmlns:svg="http://www.w3.org/2000/svg">
  <defs
     id="defs4741" />
  <sodipodi:namedview
     id="namedview4739"
     pagecolor="#505050"
     bordercolor="#eeeeee"
     borderopacity="1"
     inkscape:pageshadow="0"
     inkscape:pageopacity="0"
     inkscape:pagecheckerboard="0"
     showgrid="false"
     inkscape:current-layer="g10135" />
  <g
     inkscape:groupmode="layer"
     inkscape:label="Image"
     id="g4743"
     transform="translate(-3.3150265,-2.0405495)">
    <g
       id="g10135">
      <path
         style="font-variation-settings:normal;opacity:1;vector-effect:none;fill:#ed0d95;fill-opacity:1;stroke-width:0.192;stroke-linecap:butt;stroke-linejoin:miter;stroke-miterlimit:4;stroke-dasharray:none;stroke-dashoffset:0;stroke-opacity:1;-inkscape-stroke:none;stop-color:#000000;stop-opacity:1"
         d="M 6.2055257,6.7882714 C 6.1719696,6.7165136 6.1150575,6.5531439 6.0245045,6.4102412 L 5.8598615,6.1504181 5.4514435,6.3689965 c 0,0 -0.2561679,0.1692357 -0.3886303,0.089888 -0.054107,-0.032411 -0.0409,-0.060096 -0.033977,-0.092067 0.033286,-0.1537234 0.157138,-0.2376696 0.331853,-0.3354446 L 5.6783515,5.8535996 C 5.6109876,5.6645785 5.5218617,5.4457936 5.4604395,5.2857298 5.2737438,5.1339417 4.7479195,5.1701037 4.7479195,5.1701037 4.3560337,5.1065095 3.8733157,4.9077937 3.6752132,4.7285133 c 0,0 -0.1808017,-0.1856745 -0.246477,-0.3336865 C 3.3402022,4.1952987 3.3150265,3.7476842 3.3150265,3.7476842 c 0,-0.8886089 0.2651599,-1.3186273 0.963131,-1.5619414 0,0 0.3922062,-0.1480425 0.5994846,-0.1451515 0.1616866,0.00226 0.4411924,0.1128375 0.4411924,0.1128375 0.957895,0.3641906 1.330508,1.4646847 0.767894,2.2679294 0,0 -0.241945,0.2506546 -0.2683368,0.4231287 -0.00795,0.2730762 0.1774404,0.5570206 0.2519275,0.7543063 0.1516721,0.088258 0.2377923,-0.055247 0.4121257,-0.1198988 0.1645323,-0.061017 0.3597128,-0.2159235 0.4354642,-0.057633 0.063971,0.133674 -0.1289686,0.2133739 -0.246439,0.3037164 l -0.3020056,0.2322624 0.125596,0.5004125 c 0,0 0.1410168,0.4105329 4.39e-5,0.4686136 C 6.2845004,7.0130349 6.2231071,6.8258684 6.2055257,6.7882714 Z M 5.4599085,4.3363064 c 0.193115,-0.1747666 0.351118,-0.4919633 0.351118,-0.7048817 0,-0.4996117 -0.535827,-1.0893606 -0.989758,-1.0893606 -0.4264222,0 -1.122242,0.6547476 -1.122242,1.056 0,0.386976 0.6898563,1.0560001 1.088882,1.0560001 0.176485,0 0.478885,-0.1429909 0.672,-0.3177578 z"
         id="path10139"
         sodipodi:nodetypes="ssccsasccssssssssccsssccssssssss" />
    </g>
  </g>
</svg>

<svg width="3.616" height="4.908" xmlns="http://www.w3.org/2000/svg"><path style="font-variation-settings:normal;opacity:1;vector-effect:none;fill:#ed0d95;fill-opacity:1;stroke-width:.192;stroke-linecap:butt;stroke-linejoin:miter;stroke-miterlimit:4;stroke-dasharray:none;stroke-dashoffset:0;stroke-opacity:1;-inkscape-stroke:none;stop-color:#000;stop-opacity:1" d="M6.206 6.788c-.034-.071-.09-.235-.181-.378l-.165-.26-.409.219s-.256.17-.388.09c-.054-.033-.041-.06-.034-.092.033-.154.157-.238.332-.336l.317-.177c-.067-.19-.156-.408-.218-.568-.186-.152-.712-.116-.712-.116-.392-.063-.875-.262-1.073-.441 0 0-.18-.186-.246-.334-.089-.2-.114-.647-.114-.647 0-.889.265-1.319.963-1.562 0 0 .392-.148.6-.145.161.002.44.112.44.112.959.365 1.331 1.465.769 2.268 0 0-.242.251-.269.423-.008.274.178.558.252.755.152.088.238-.055.412-.12.165-.061.36-.216.436-.058.064.134-.13.214-.247.304l-.302.232.126.5s.141.411 0 .47c-.21.086-.272-.101-.29-.139ZM5.46 4.336c.193-.174.351-.492.351-.705 0-.5-.536-1.089-.99-1.089-.426 0-1.122.655-1.122 1.056 0 .387.69 1.056 1.089 1.056.176 0 .479-.143.672-.318z" transform="translate(-3.315 -2.04)"/></svg>
